X:1501
T: Birl Exercises
O:Kevin Fraser
Z:Kevin Fraser
B: http://svenax.net/site/canntaireachd/7/
Q:1/4=78
K:HP
M:9/4
L:1/4
R:March
L:2/4
[| a  {AGAG}A   |  g   {AGAG}A   |  f  {AGAG}A  |  e  {AGAG}A  |
w: I  hararin |  DI  hararin |  VE hararin|  E  hararin |
|  d  {AGAG}A   |  c   {AGAG}A   |  B  {AGAG}A  |  A  {GAG}A   | G {AGAG}A |]
w: A  hararin |  O   hararin |  O  hararin|  EN hararin | EM hararin :|
T:Birl with G Gracenote
[| a  {AGAG}A   |  g   {AGAG}A    |  f  {gAGAG}A  |  e  {gAGAG}A  |
w: I  enhararin |  DI  enhararin  |  VE hihararin |  E  hihararin |
|  d  {gAGAG}A   |  c   {gAGAG}A   |  B  {gAGAG}A  |  A  {gAGAG}A  | G {gAGAG}A |]
w: A  hihararin  |  O   hihararin  |  O  hihararin |  EN hihararin | EM hihararin :

